svgs/light/card-diamond.svg

<svg xmlns="http://www.w3.org/2000/svg" viewBox="0 0 384 512"><!--! Font Awesome Pro 6.1.1 by @fontawesome - https://fontawesome.com License - https://fontawesome.com/license (Commercial License) Copyright 2022 Fonticons, Inc. --><path d="M299.3 244.7C305.6 250.9 305.6 261.1 299.3 267.3L203.3 363.3C197.1 369.6 186.9 369.6 180.7 363.3L84.69 267.3C78.44 261.1 78.44 250.9 84.69 244.7L180.7 148.7C186.9 142.4 197.1 142.4 203.3 148.7L299.3 244.7zM265.4 256L192 182.6L118.6 256L192 329.4L265.4 256zM0 64C0 28.65 28.65 0 64 0H320C355.3 0 384 28.65 384 64V448C384 483.3 355.3 512 320 512H64C28.65 512 0 483.3 0 448V64zM32 64V448C32 465.7 46.33 480 64 480H320C337.7 480 352 465.7 352 448V64C352 46.33 337.7 32 320 32H64C46.33 32 32 46.33 32 64z"/></svg>

<svg xmlns="http://www.w3.org/2000/svg" viewBox="0 0 384 512"><!--! Font Awesome Pro 6.5.1 by @fontawesome - https://fontawesome.com License - https://fontawesome.com/license (Commercial License) Copyright 2023 Fonticons, Inc. --><path d="M64 32C46.3 32 32 46.3 32 64V448c0 17.7 14.3 32 32 32H320c17.7 0 32-14.3 32-32V64c0-17.7-14.3-32-32-32H64zM0 64C0 28.7 28.7 0 64 0H320c35.3 0 64 28.7 64 64V448c0 35.3-28.7 64-64 64H64c-35.3 0-64-28.7-64-64V64zm203.3 84.7l96 96c6.2 6.2 6.2 16.4 0 22.6l-96 96c-6.2 6.2-16.4 6.2-22.6 0l-96-96c-6.2-6.2-6.2-16.4 0-22.6l96-96c6.2-6.2 16.4-6.2 22.6 0zM192 329.4L265.4 256 192 182.6 118.6 256 192 329.4z"/></svg>
